X:2081 
T:As yn mullin, mullin o, as yn skeilley, skeilley noa 
C:Joseph Crellin, Colby
O:Isle of Man
S:Traditional
Z:Clague collection
B:Kiaull Vannin #81
N:See also KV 347 and 376
N:Key signature changed from C to G 
M:2/4 
L:1/8 
Q:120 
K:G 
c| B2 d2| BB d2| BB d2| A<d zc| BB d2| B2 d2| B2 d2| A<d zc| 
B2 d2| B2d2| c2 B2| A2 GA| B2 DD| DD DD| E2 E2| E<!fermata!G GA| 
BB BB| D2 DD| EE EE| !fermata!A2 GA| BB d2| B2 G2| E2 DD| E<G z|| 

